studioX_dirs/sX_0_Template_VFX_v2/01_SHOTS_ASSETS/shots/SHOT_NAME/studio/shot_OCIO/shot_lut/clientShotLUTname_ACEScct.cube
TITLE "Generated by Foundry::LUT"
LUT_3D_SIZE 9
0.072906 -0.002916 0.072906
0.072906 0.024709 0.072906
0.072906 0.070706 0.072906
0.072906 0.229433 0.072906
0.072906 0.371480 0.072906
0.072906 0.499787 0.072906
0.072906 0.625494 0.072906
0.072906 0.750648 0.072906
0.072906 0.875682 0.072906
0.072906 0.090086 0.072906
0.072906 0.117711 0.072906
0.072906 0.163301 0.072906
0.072906 0.260527 0.072906
0.072906 0.377950 0.072906
0.072906 0.501192 0.072906
0.072906 0.625802 0.072906
0.072906 0.750716 0.072906
0.072906 0.875697 0.072906
0.072906 0.215921 0.072906
0.072906 0.228183 0.072906
0.072906 0.245255 0.072906
0.072906 0.295204 0.072906
0.072906 0.387709 0.072906
0.072906 0.503480 0.072906
0.072906 0.626311 0.072906
0.072906 0.750828 0.072906
0.072906 0.875721 0.072906
0.072906 0.348615 0.072906
0.072906 0.351213 0.072906
0.072906 0.355364 0.072906
0.072906 0.371674 0.072906
0.072906 0.420981 0.072906
0.072906 0.512962 0.072906
0.072906 0.628542 0.072906
0.072906 0.751325 0.072906
0.072906 0.875831 0.072906
0.072906 0.475209 0.072906
0.072906 0.475775 0.072906
0.072906 0.476708 0.072906
0.072906 0.480739 0.072906
0.072906 0.496982 0.072906
0.072906 0.546150 0.072906
0.072906 0.638018 0.072906
0.072906 0.753555 0.072906
0.072906 0.876328 0.072906
0.072906 0.600554 0.072906
0.072906 0.600678 0.072906
0.072906 0.600884 0.072906
0.072906 0.601793 0.072906
0.072906 0.605821 0.072906
0.072906 0.622049 0.072906
0.072906 0.671187 0.072906
0.072906 0.763030 0.072906
0.072906 0.878558 0.072906
0.072906 0.725630 0.072906
0.072906 0.725657 0.072906
0.072906 0.725702 0.072906
0.072906 0.725903 0.072906
0.072906 0.726812 0.072906
0.072906 0.730839 0.072906
0.072906 0.747064 0.072906
0.072906 0.796195 0.072906
0.072906 0.888033 0.072906
0.072906 0.850646 0.072906
0.072906 0.850652 0.072906
0.072906 0.850662 0.072906
0.072906 0.850706 0.072906
0.072906 0.850907 0.072906
0.072906 0.851816 0.072906
0.072906 0.855843 0.072906
0.072906 0.872067 0.072906
0.072906 0.921197 0.072906
0.072906 0.975650 0.072906
0.072906 0.975651 0.072906
0.072906 0.975654 0.072906
0.072906 0.975663 0.072906
0.072906 0.975707 0.072906
0.072906 0.975908 0.072906
0.072906 0.976817 0.072906
0.072906 0.980844 0.072906
0.072906 0.997068 0.072906
0.072906 0.006457 0.072906
0.072906 0.034082 0.072906
0.072906 0.080079 0.072906
0.072906 0.233155 0.072906
0.072906 0.372155 0.072906
0.072906 0.499930 0.072906
0.072906 0.625525 0.072906
0.072906 0.750655 0.072906
0.072906 0.875684 0.072906
0.072906 0.099459 0.072906
0.072906 0.127084 0.072906
0.072906 0.171391 0.072906
0.072906 0.263097 0.072906
0.072906 0.378575 0.072906
0.072906 0.501332 0.072906
0.072906 0.625833 0.072906
0.072906 0.750723 0.072906
0.072906 0.875698 0.072906
0.072906 0.220289 0.072906
0.072906 0.231961 0.072906
0.072906 0.248339 0.072906
0.072906 0.296900 0.072906
0.072906 0.388264 0.072906
0.072906 0.503616 0.072906
0.072906 0.626342 0.072906
0.072906 0.750834 0.072906
0.072906 0.875723 0.072906
0.072906 0.349505 0.072906
0.072906 0.352076 0.072906
0.072906 0.356185 0.072906
0.072906 0.372348 0.072906
0.072906 0.421352 0.072906
0.072906 0.513084 0.072906
0.072906 0.628572 0.072906
0.072906 0.751332 0.072906
0.072906 0.875832 0.072906
0.072906 0.475402 0.072906
0.072906 0.475965 0.072906
0.072906 0.476896 0.072906
0.072906 0.480919 0.072906
0.072906 0.497129 0.072906
0.072906 0.546231 0.072906
0.072906 0.638044 0.072906
0.072906 0.753562 0.072906
0.072906 0.876329 0.072906
0.072906 0.600596 0.072906
0.072906 0.600720 0.072906
0.072906 0.600926 0.072906
0.072906 0.601835 0.072906
0.072906 0.605861 0.072906
0.072906 0.622081 0.072906
0.072906 0.671205 0.072906
0.072906 0.763036 0.072906
0.072906 0.878560 0.072906
0.072906 0.725639 0.072906
0.072906 0.725666 0.072906
0.072906 0.725711 0.072906
0.072906 0.725912 0.072906
0.072906 0.726821 0.072906
0.072906 0.730848 0.072906
0.072906 0.747071 0.072906
0.072906 0.796199 0.072906
0.072906 0.888034 0.072906
0.072906 0.850648 0.072906
0.072906 0.850654 0.072906
0.072906 0.850664 0.072906
0.072906 0.850708 0.072906
0.072906 0.850909 0.072906
0.072906 0.851818 0.072906
0.072906 0.855845 0.072906
0.072906 0.872068 0.072906
0.072906 0.921198 0.072906
0.072906 0.975651 0.072906
0.072906 0.975652 0.072906
0.072906 0.975654 0.072906
0.072906 0.975664 0.072906
0.072906 0.975708 0.072906
0.072906 0.975908 0.072906
0.072906 0.976817 0.072906
0.072906 0.980844 0.072906
0.072906 0.997068 0.072906
0.072906 0.022063 0.072906
0.072906 0.049688 0.072906
0.072906 0.095686 0.072906
0.072906 0.239002 0.072906
0.072906 0.373268 0.072906
0.072906 0.500167 0.072906
0.072906 0.625577 0.072906
0.072906 0.750667 0.072906
0.072906 0.875686 0.072906
0.072906 0.115065 0.072906
0.072906 0.142690 0.072906
0.072906 0.183313 0.072906
0.072906 0.267205 0.072906
0.072906 0.379605 0.072906
0.072906 0.501565 0.072906
0.072906 0.625884 0.072906
0.072906 0.750734 0.072906
0.072906 0.875701 0.072906
0.072906 0.227085 0.072906
0.072906 0.237890 0.072906
0.072906 0.253230 0.072906
0.072906 0.299647 0.072906
0.072906 0.389180 0.072906
0.072906 0.503843 0.072906
0.072906 0.626393 0.072906
0.072906 0.750846 0.072906
0.072906 0.875726 0.072906
0.072906 0.350968 0.072906
0.072906 0.353493 0.072906
0.072906 0.357534 0.072906
0.072906 0.373458 0.072906
0.072906 0.421966 0.072906
0.072906 0.513286 0.072906
0.072906 0.628621 0.072906
0.072906 0.751343 0.072906
0.072906 0.875835 0.072906
0.072906 0.475720 0.072906
0.072906 0.476283 0.072906
0.072906 0.477210 0.072906
0.072906 0.481218 0.072906
0.072906 0.497374 0.072906
0.072906 0.546366 0.072906
0.072906 0.638089 0.072906
0.072906 0.753573 0.072906
0.072906 0.876332 0.072906
0.072906 0.600666 0.072906
0.072906 0.600790 0.072906
0.072906 0.600995 0.072906
0.072906 0.601904 0.072906
0.072906 0.605926 0.072906
0.072906 0.622135 0.072906
0.072906 0.671234 0.072906
0.072906 0.763045 0.072906
0.072906 0.878562 0.072906
0.072906 0.725654 0.072906
0.072906 0.725681 0.072906
0.072906 0.725727 0.072906
0.072906 0.725927 0.072906
0.072906 0.726836 0.072906
0.072906 0.730862 0.072906
0.072906 0.747082 0.072906
0.072906 0.796205 0.072906
0.072906 0.888036 0.072906
0.072906 0.850652 0.072906
0.072906 0.850658 0.072906
0.072906 0.850668 0.072906
0.072906 0.850712 0.072906
0.072906 0.850912 0.072906
0.072906 0.851822 0.072906
0.072906 0.855848 0.072906
0.072906 0.872071 0.072906
0.072906 0.921199 0.072906
0.072906 0.975651 0.072906
0.072906 0.975653 0.072906
0.072906 0.975655 0.072906
0.072906 0.975664 0.072906
0.072906 0.975709 0.072906
0.072906 0.975909 0.072906
0.072906 0.976818 0.072906
0.072906 0.980845 0.072906
0.072906 0.997068 0.072906
0.072906 0.091589 0.072906
0.072906 0.119214 0.072906
0.072906 0.164653 0.072906
0.072906 0.260945 0.072906
0.072906 0.378051 0.072906
0.072906 0.501215 0.072906
0.072906 0.625807 0.072906
0.072906 0.750717 0.072906
0.072906 0.875697 0.072906
0.072906 0.180346 0.072906
0.072906 0.198546 0.072906
0.072906 0.222041 0.072906
0.072906 0.283363 0.072906
0.072906 0.384042 0.072906
0.072906 0.502596 0.072906
0.072906 0.626113 0.072906
0.072906 0.750784 0.072906
0.072906 0.875712 0.072906
0.072906 0.251974 0.072906
0.072906 0.260094 0.072906
0.072906 0.272058 0.072906
0.072906 0.310884 0.072906
0.072906 0.393142 0.072906
0.072906 0.504845 0.072906
0.072906 0.626620 0.072906
0.072906 0.750896 0.072906
0.072906 0.875736 0.072906
0.072906 0.357183 0.072906
0.072906 0.359527 0.072906
0.072906 0.363289 0.072906
0.072906 0.378230 0.072906
0.072906 0.424647 0.072906
0.072906 0.514180 0.072906
0.072906 0.628843 0.072906
0.072906 0.751393 0.072906
0.072906 0.875846 0.072906
0.072906 0.477128 0.072906
0.072906 0.477680 0.072906
0.072906 0.478591 0.072906
0.072906 0.482534 0.072906
0.072906 0.498458 0.072906
0.072906 0.546966 0.072906
0.072906 0.638286 0.072906
0.072906 0.753621 0.072906
0.072906 0.876343 0.072906
0.072906 0.600977 0.072906
0.072906 0.601100 0.072906
0.072906 0.601305 0.072906
0.072906 0.602210 0.072906
0.072906 0.606218 0.072906
0.072906 0.622374 0.072906
0.072906 0.671366 0.072906
0.072906 0.763089 0.072906
0.072906 0.878573 0.072906
0.072906 0.725723 0.072906
0.072906 0.725750 0.072906
0.072906 0.725795 0.072906
0.072906 0.725995 0.072906
0.072906 0.726903 0.072906
0.072906 0.730926 0.072906
0.072906 0.747135 0.072906
0.072906 0.796234 0.072906
0.072906 0.888045 0.072906
0.072906 0.850667 0.072906
0.072906 0.850673 0.072906
0.072906 0.850683 0.072906
0.072906 0.850727 0.072906
0.072906 0.850927 0.072906
0.072906 0.851836 0.072906
0.072906 0.855862 0.072906
0.072906 0.872082 0.072906
0.072906 0.921206 0.072906
0.072906 0.975654 0.072906
0.072906 0.975656 0.072906
0.072906 0.975658 0.072906
0.072906 0.975668 0.072906
0.072906 0.975712 0.072906
0.072906 0.975912 0.072906
0.072906 0.976822 0.072906
0.072906 0.980848 0.072906
0.072906 0.997071 0.072906
0.072906 0.271027 0.072906
0.072906 0.277535 0.072906
0.072906 0.287345 0.072906
0.072906 0.320751 0.072906
0.072906 0.396915 0.072906
0.072906 0.505833 0.072906
0.072906 0.626846 0.072906
0.072906 0.750946 0.072906
0.072906 0.875747 0.072906
0.072906 0.291152 0.072906
0.072906 0.296292 0.072906
0.072906 0.304196 0.072906
0.072906 0.332357 0.072906
0.072906 0.401715 0.072906
0.072906 0.507140 0.072906
0.072906 0.627149 0.072906
0.072906 0.751013 0.072906
0.072906 0.875762 0.072906
0.072906 0.316534 0.072906
0.072906 0.320341 0.072906
0.072906 0.326314 0.072906
0.072906 0.348656 0.072906
0.072906 0.409134 0.072906
0.072906 0.509270 0.072906
0.072906 0.627650 0.072906
0.072906 0.751125 0.072906
0.072906 0.875787 0.072906
0.072906 0.380772 0.072906
0.072906 0.382538 0.072906
0.072906 0.385399 0.072906
0.072906 0.397058 0.072906
0.072906 0.435884 0.072906
0.072906 0.518142 0.072906
0.072906 0.629845 0.072906
0.072906 0.751620 0.072906
0.072906 0.875896 0.072906
0.072906 0.483258 0.072906
0.072906 0.483771 0.072906
0.072906 0.484618 0.072906
0.072906 0.488289 0.072906
0.072906 0.503230 0.072906
0.072906 0.549648 0.072906
0.072906 0.639180 0.072906
0.072906 0.753843 0.072906
0.072906 0.876393 0.072906
0.072906 0.602379 0.072906
0.072906 0.602501 0.072906
0.072906 0.602702 0.072906
0.072906 0.603591 0.072906
0.072906 0.607535 0.072906
0.072906 0.623458 0.072906
0.072906 0.671966 0.072906
0.072906 0.763286 0.072906
0.072906 0.878621 0.072906
0.072906 0.726033 0.072906
0.072906 0.726060 0.072906
0.072906 0.726105 0.072906
0.072906 0.726304 0.072906
0.072906 0.727210 0.072906
0.072906 0.731218 0.072906
0.072906 0.747374 0.072906
0.072906 0.796366 0.072906
0.072906 0.888089 0.072906
0.072906 0.850735 0.072906
0.072906 0.850741 0.072906
0.072906 0.850751 0.072906
0.072906 0.850795 0.072906
0.072906 0.850995 0.072906
0.072906 0.851903 0.072906
0.072906 0.855926 0.072906
0.072906 0.872135 0.072906
0.072906 0.921234 0.072906
0.072906 0.975670 0.072906
0.072906 0.975671 0.072906
0.072906 0.975673 0.072906
0.072906 0.975683 0.072906
0.072906 0.975727 0.072906
0.072906 0.975927 0.072906
0.072906 0.976836 0.072906
0.072906 0.980862 0.072906
0.072906 0.997083 0.072906
0.072906 0.408500 0.072906
0.072906 0.409765 0.072906
0.072906 0.411830 0.072906
0.072906 0.420449 0.072906
0.072906 0.451240 0.072906
0.072906 0.524136 0.072906
0.072906 0.631431 0.072906
0.072906 0.751984 0.072906
0.072906 0.875977 0.072906
0.072906 0.412685 0.072906
0.072906 0.413889 0.072906
0.072906 0.415854 0.072906
0.072906 0.424081 0.072906
0.072906 0.453757 0.072906
0.072906 0.525183 0.072906
0.072906 0.631717 0.072906
0.072906 0.752050 0.072906
0.072906 0.875991 0.072906
0.072906 0.419215 0.072906
0.072906 0.420327 0.072906
0.072906 0.422146 0.072906
0.072906 0.429796 0.072906
0.072906 0.457783 0.072906
0.072906 0.526899 0.072906
0.072906 0.632191 0.072906
0.072906 0.752161 0.072906
0.072906 0.876016 0.072906
0.072906 0.443290 0.072906
0.072906 0.444121 0.072906
0.072906 0.445488 0.072906
0.072906 0.451314 0.072906
0.072906 0.473656 0.072906
0.072906 0.534134 0.072906
0.072906 0.634270 0.072906
0.072906 0.752650 0.072906
0.072906 0.876125 0.072906
0.072906 0.506581 0.072906
0.072906 0.506968 0.072906
0.072906 0.507608 0.072906
0.072906 0.510399 0.072906
0.072906 0.522058 0.072906
0.072906 0.560884 0.072906
0.072906 0.643142 0.072906
0.072906 0.754845 0.072906
0.072906 0.876620 0.072906
0.072906 0.608492 0.072906
0.072906 0.608605 0.072906
0.072906 0.608792 0.072906
0.072906 0.609619 0.072906
0.072906 0.613289 0.072906
0.072906 0.628230 0.072906
0.072906 0.674648 0.072906
0.072906 0.764180 0.072906
0.072906 0.878843 0.072906
0.072906 0.727435 0.072906
0.072906 0.727461 0.072906
0.072906 0.727505 0.072906
0.072906 0.727701 0.072906
0.072906 0.728591 0.072906
0.072906 0.732534 0.072906
0.072906 0.748458 0.072906
0.072906 0.796966 0.072906
0.072906 0.888286 0.072906
0.072906 0.851045 0.072906
0.072906 0.851051 0.072906
0.072906 0.851061 0.072906
0.072906 0.851105 0.072906
0.072906 0.851304 0.072906
0.072906 0.852209 0.072906
0.072906 0.856218 0.072906
0.072906 0.872374 0.072906
0.072906 0.921366 0.072906
0.072906 0.975738 0.072906
0.072906 0.975739 0.072906
0.072906 0.975741 0.072906
0.072906 0.975751 0.072906
0.072906 0.975795 0.072906
0.072906 0.975995 0.072906
0.072906 0.976903 0.072906
0.072906 0.980926 0.072906
0.072906 0.997135 0.072906
0.072906 0.535998 0.072906
0.072906 0.536269 0.072906
0.072906 0.536717 0.072906
0.072906 0.538687 0.072906
0.072906 0.547123 0.072906
0.072906 0.577396 0.072906
0.072906 0.649614 0.072906
0.072906 0.756561 0.072906
0.072906 0.877014 0.072906
0.072906 0.536905 0.072906
0.072906 0.537173 0.072906
0.072906 0.537617 0.072906
0.072906 0.539566 0.072906
0.072906 0.547917 0.072906
0.072906 0.577946 0.072906
0.072906 0.649844 0.072906
0.072906 0.756624 0.072906
0.072906 0.877029 0.072906
0.072906 0.538395 0.072906
0.072906 0.538658 0.072906
0.072906 0.539094 0.072906
0.072906 0.541009 0.072906
0.072906 0.549222 0.072906
0.072906 0.578854 0.072906
0.072906 0.650225 0.072906
0.072906 0.756728 0.072906
0.072906 0.877053 0.072906
0.072906 0.544723 0.072906
0.072906 0.544967 0.072906
0.072906 0.545370 0.072906
0.072906 0.547146 0.072906
0.072906 0.554795 0.072906
0.072906 0.582783 0.072906
0.072906 0.651899 0.072906
0.072906 0.757191 0.072906
0.072906 0.877161 0.072906
0.072906 0.568669 0.072906
0.072906 0.568852 0.072906
0.072906 0.569154 0.072906
0.072906 0.570488 0.072906
0.072906 0.576314 0.072906
0.072906 0.598656 0.072906
0.072906 0.659134 0.072906
0.072906 0.759270 0.072906
0.072906 0.877650 0.072906
0.072906 0.631757 0.072906
0.072906 0.631842 0.072906
0.072906 0.631983 0.072906
0.072906 0.632608 0.072906
0.072906 0.635399 0.072906
0.072906 0.647058 0.072906
0.072906 0.685884 0.072906
0.072906 0.768142 0.072906
0.072906 0.879845 0.072906
0.072906 0.733544 0.072906
0.072906 0.733568 0.072906
0.072906 0.733609 0.072906
0.072906 0.733792 0.072906
0.072906 0.734618 0.072906
0.072906 0.738289 0.072906
0.072906 0.753230 0.072906
0.072906 0.799647 0.072906
0.072906 0.889180 0.072906
0.072906 0.852447 0.072906
0.072906 0.852453 0.072906
0.072906 0.852462 0.072906
0.072906 0.852505 0.072906
0.072906 0.852701 0.072906
0.072906 0.853591 0.072906
0.072906 0.857534 0.072906
0.072906 0.873458 0.072906
0.072906 0.921966 0.072906
0.072906 0.976048 0.072906
0.072906 0.976049 0.072906
0.072906 0.976051 0.072906
0.072906 0.976061 0.072906
0.072906 0.976105 0.072906
0.072906 0.976304 0.072906
0.072906 0.977209 0.072906
0.072906 0.981218 0.072906
0.072906 0.997374 0.072906
0.072906 0.661535 0.072906
0.072906 0.661594 0.072906
0.072906 0.661692 0.072906
0.072906 0.662128 0.072906
0.072906 0.664089 0.072906
0.072906 0.672485 0.072906
0.072906 0.702647 0.072906
0.072906 0.774719 0.072906
0.072906 0.881590 0.072906
0.072906 0.661734 0.072906
0.072906 0.661792 0.072906
0.072906 0.661890 0.072906
0.072906 0.662325 0.072906
0.072906 0.664281 0.072906
0.072906 0.672659 0.072906
0.072906 0.702768 0.072906
0.072906 0.774769 0.072906
0.072906 0.881603 0.072906
0.072906 0.662063 0.072906
0.072906 0.662122 0.072906
0.072906 0.662219 0.072906
0.072906 0.662652 0.072906
0.072906 0.664601 0.072906
0.072906 0.672948 0.072906
0.072906 0.702968 0.072906
0.072906 0.774853 0.072906
0.072906 0.881626 0.072906
0.072906 0.663515 0.072906
0.072906 0.663573 0.072906
0.072906 0.663669 0.072906
0.072906 0.664094 0.072906
0.072906 0.666009 0.072906
0.072906 0.674222 0.072906
0.072906 0.703854 0.072906
0.072906 0.775225 0.072906
0.072906 0.881728 0.072906
0.072906 0.669834 0.072906
0.072906 0.669887 0.072906
0.072906 0.669976 0.072906
0.072906 0.670370 0.072906
0.072906 0.672146 0.072906
0.072906 0.679795 0.072906
0.072906 0.707783 0.072906
0.072906 0.776899 0.072906
0.072906 0.882191 0.072906
0.072906 0.693752 0.072906
0.072906 0.693792 0.072906
0.072906 0.693859 0.072906
0.072906 0.694154 0.072906
0.072906 0.695488 0.072906
0.072906 0.701314 0.072906
0.072906 0.723656 0.072906
0.072906 0.784134 0.072906
0.072906 0.884270 0.072906
0.072906 0.756796 0.072906
0.072906 0.756815 0.072906
0.072906 0.756845 0.072906
0.072906 0.756983 0.072906
0.072906 0.757608 0.072906
0.072906 0.760399 0.072906
0.072906 0.772058 0.072906
0.072906 0.810884 0.072906
0.072906 0.893142 0.072906
0.072906 0.858555 0.072906
0.072906 0.858560 0.072906
0.072906 0.858569 0.072906
0.072906 0.858609 0.072906
0.072906 0.858791 0.072906
0.072906 0.859618 0.072906
0.072906 0.863289 0.072906
0.072906 0.878230 0.072906
0.072906 0.924647 0.072906
0.072906 0.977449 0.072906
0.072906 0.977451 0.072906
0.072906 0.977453 0.072906
0.072906 0.977462 0.072906
0.072906 0.977505 0.072906
0.072906 0.977702 0.072906
0.072906 0.978591 0.072906
0.072906 0.982534 0.072906
0.072906 0.998458 0.072906
0.072906 0.786652 0.072906
0.072906 0.786665 0.072906
0.072906 0.786687 0.072906
0.072906 0.786783 0.072906
0.072906 0.787218 0.072906
0.072906 0.789176 0.072906
0.072906 0.797565 0.072906
0.072906 0.827702 0.072906
0.072906 0.899742 0.072906
0.072906 0.786696 0.072906
0.072906 0.786709 0.072906
0.072906 0.786730 0.072906
0.072906 0.786826 0.072906
0.072906 0.787261 0.072906
0.072906 0.789218 0.072906
0.072906 0.797603 0.072906
0.072906 0.827728 0.072906
0.072906 0.899753 0.072906
0.072906 0.786768 0.072906
0.072906 0.786781 0.072906
0.072906 0.786803 0.072906
0.072906 0.786898 0.072906
0.072906 0.787333 0.072906
0.072906 0.789289 0.072906
0.072906 0.797666 0.072906
0.072906 0.827772 0.072906
0.072906 0.899771 0.072906
0.072906 0.787090 0.072906
0.072906 0.787103 0.072906
0.072906 0.787124 0.072906
0.072906 0.787219 0.072906
0.072906 0.787652 0.072906
0.072906 0.789601 0.072906
0.072906 0.797948 0.072906
0.072906 0.827968 0.072906
0.072906 0.899853 0.072906
0.072906 0.788541 0.072906
0.072906 0.788554 0.072906
0.072906 0.788575 0.072906
0.072906 0.788669 0.072906
0.072906 0.789094 0.072906
0.072906 0.791009 0.072906
0.072906 0.799222 0.072906
0.072906 0.828855 0.072906
0.072906 0.900225 0.072906
0.072906 0.794858 0.072906
0.072906 0.794870 0.072906
0.072906 0.794889 0.072906
0.072906 0.794976 0.072906
0.072906 0.795371 0.072906
0.072906 0.797146 0.072906
0.072906 0.804795 0.072906
0.072906 0.832783 0.072906
0.072906 0.901899 0.072906
0.072906 0.818771 0.072906
0.072906 0.818779 0.072906
0.072906 0.818794 0.072906
0.072906 0.818859 0.072906
0.072906 0.819154 0.072906
0.072906 0.820488 0.072906
0.072906 0.826314 0.072906
0.072906 0.848656 0.072906
0.072906 0.909134 0.072906
0.072906 0.881804 0.072906
0.072906 0.881809 0.072906
0.072906 0.881815 0.072906
0.072906 0.881845 0.072906
0.072906 0.881983 0.072906
0.072906 0.882608 0.072906
0.072906 0.885399 0.072906
0.072906 0.897058 0.072906
0.072906 0.935884 0.072906
0.072906 0.983557 0.072906
0.072906 0.983558 0.072906
0.072906 0.983560 0.072906
0.072906 0.983569 0.072906
0.072906 0.983609 0.072906
0.072906 0.983792 0.072906
0.072906 0.984618 0.072906
0.072906 0.988289 0.072906
0.072906 1.003230 0.072906
