studioX_dirs/sX_0_Template_VFX_v2/01_SHOTS_ASSETS/shots/SHOT_NAME/studio/shot_OCIO/shot_lut/clientShotLUTname_ACEScct.cube
TITLE "Generated by Foundry::LUT"
LUT_3D_SIZE 33
0.072906 -0.002916 0.072906
0.072906 0.003990 0.072906
0.072906 0.010896 0.072906
0.072906 0.017803 0.072906
0.072906 0.024709 0.072906
0.072906 0.031616 0.072906
0.072906 0.040118 0.072906
0.072906 0.052545 0.072906
0.072906 0.070706 0.072906
0.072906 0.097250 0.072906
0.072906 0.136045 0.072906
0.072906 0.186150 0.072906
0.072906 0.229433 0.072906
0.072906 0.268007 0.072906
0.072906 0.303918 0.072906
0.072906 0.338210 0.072906
0.072906 0.371480 0.072906
0.072906 0.404083 0.072906
0.072906 0.436247 0.072906
0.072906 0.468116 0.072906
0.072906 0.499787 0.072906
0.072906 0.531324 0.072906
0.072906 0.562769 0.072906
0.072906 0.594153 0.072906
0.072906 0.625494 0.072906
0.072906 0.656807 0.072906
0.072906 0.688100 0.072906
0.072906 0.719379 0.072906
0.072906 0.750648 0.072906
0.072906 0.781912 0.072906
0.072906 0.813172 0.072906
0.072906 0.844428 0.072906
0.072906 0.875682 0.072906
0.072906 0.020334 0.072906
0.072906 0.027241 0.072906
0.072906 0.034147 0.072906
0.072906 0.041053 0.072906
0.072906 0.047959 0.072906
0.072906 0.054867 0.072906
0.072906 0.063369 0.072906
0.072906 0.075795 0.072906
0.072906 0.093956 0.072906
0.072906 0.120500 0.072906
0.072906 0.159199 0.072906
0.072906 0.200751 0.072906
0.072906 0.238374 0.072906
0.072906 0.273717 0.072906
0.072906 0.307654 0.072906
0.072906 0.340693 0.072906
0.072906 0.373146 0.072906
0.072906 0.405208 0.072906
0.072906 0.437010 0.072906
0.072906 0.468635 0.072906
0.072906 0.500141 0.072906
0.072906 0.531565 0.072906
0.072906 0.562934 0.072906
0.072906 0.594266 0.072906
0.072906 0.625571 0.072906
0.072906 0.656859 0.072906
0.072906 0.688135 0.072906
0.072906 0.719403 0.072906
0.072906 0.750665 0.072906
0.072906 0.781924 0.072906
0.072906 0.813179 0.072906
0.072906 0.844433 0.072906
0.072906 0.875686 0.072906
0.072906 0.043585 0.072906
0.072906 0.050491 0.072906
0.072906 0.057397 0.072906
0.072906 0.064304 0.072906
0.072906 0.071210 0.072906
0.072906 0.078117 0.072906
0.072906 0.086619 0.072906
0.072906 0.099046 0.072906
0.072906 0.117207 0.072906
0.072906 0.143751 0.072906
0.072906 0.178825 0.072906
0.072906 0.213149 0.072906
0.072906 0.246439 0.072906
0.072906 0.279056 0.072906
0.072906 0.311228 0.072906
0.072906 0.343103 0.072906
0.072906 0.374779 0.072906
0.072906 0.406318 0.072906
0.072906 0.437766 0.072906
0.072906 0.469150 0.072906
0.072906 0.500492 0.072906
0.072906 0.531805 0.072906
0.072906 0.563099 0.072906
0.072906 0.594378 0.072906
0.072906 0.625648 0.072906
0.072906 0.656912 0.072906
0.072906 0.688171 0.072906
0.072906 0.719428 0.072906
0.072906 0.750682 0.072906
0.072906 0.781935 0.072906
0.072906 0.813187 0.072906
0.072906 0.844439 0.072906
0.072906 0.875690 0.072906
0.072906 0.066835 0.072906
0.072906 0.073742 0.072906
0.072906 0.080648 0.072906
0.072906 0.087554 0.072906
0.072906 0.094460 0.072906
0.072906 0.101368 0.072906
0.072906 0.109870 0.072906
0.072906 0.122296 0.072906
0.072906 0.140457 0.072906
0.072906 0.166235 0.072906
0.072906 0.194662 0.072906
0.072906 0.223923 0.072906
0.072906 0.253784 0.072906
0.072906 0.284070 0.072906
0.072906 0.314654 0.072906
0.072906 0.345445 0.072906
0.072906 0.376379 0.072906
0.072906 0.407413 0.072906
0.072906 0.438514 0.072906
0.072906 0.469662 0.072906
0.072906 0.500843 0.072906
0.072906 0.532045 0.072906
0.072906 0.563262 0.072906
0.072906 0.594490 0.072906
0.072906 0.625725 0.072906
0.072906 0.656965 0.072906
0.072906 0.688207 0.072906
0.072906 0.719452 0.072906
0.072906 0.750699 0.072906
0.072906 0.781947 0.072906
0.072906 0.813195 0.072906
0.072906 0.844444 0.072906
0.072906 0.875693 0.072906
0.072906 0.090086 0.072906
0.072906 0.096992 0.072906
0.072906 0.103898 0.072906
0.072906 0.110805 0.072906
0.072906 0.117711 0.072906
0.072906 0.124618 0.072906
0.072906 0.133120 0.072906
0.072906 0.145547 0.072906
0.072906 0.163301 0.072906
0.072906 0.184418 0.072906
0.072906 0.207939 0.072906
0.072906 0.233448 0.072906
0.072906 0.260527 0.072906
0.072906 0.288796 0.072906
0.072906 0.317943 0.072906
0.072906 0.347721 0.072906
0.072906 0.377950 0.072906
0.072906 0.408493 0.072906
0.072906 0.439257 0.072906
0.072906 0.470172 0.072906
0.072906 0.501192 0.072906
0.072906 0.532284 0.072906
0.072906 0.563426 0.072906
0.072906 0.594602 0.072906
0.072906 0.625802 0.072906
0.072906 0.657017 0.072906
0.072906 0.688243 0.072906
0.072906 0.719477 0.072906
0.072906 0.750716 0.072906
0.072906 0.781958 0.072906
0.072906 0.813203 0.072906
0.072906 0.844450 0.072906
0.072906 0.875697 0.072906
0.072906 0.113341 0.072906
0.072906 0.120247 0.072906
0.072906 0.127153 0.072906
0.072906 0.134060 0.072906
0.072906 0.140966 0.072906
0.072906 0.147874 0.072906
0.072906 0.156368 0.072906
0.072906 0.167796 0.072906
0.072906 0.182077 0.072906
0.072906 0.199306 0.072906
0.072906 0.219371 0.072906
0.072906 0.241987 0.072906
0.072906 0.266761 0.072906
0.072906 0.293266 0.072906
0.072906 0.321106 0.072906
0.072906 0.349937 0.072906
0.072906 0.379492 0.072906
0.072906 0.409560 0.072906
0.072906 0.439992 0.072906
0.072906 0.470678 0.072906
0.072906 0.501540 0.072906
0.072906 0.532523 0.072906
0.072906 0.563590 0.072906
0.072906 0.594714 0.072906
0.072906 0.625878 0.072906
0.072906 0.657070 0.072906
0.072906 0.688279 0.072906
0.072906 0.719502 0.072906
0.072906 0.750733 0.072906
0.072906 0.781970 0.072906
0.072906 0.813211 0.072906
0.072906 0.844455 0.072906
0.072906 0.875701 0.072906
0.072906 0.141964 0.072906
0.072906 0.148870 0.072906
0.072906 0.155774 0.072906
0.072906 0.162366 0.072906
0.072906 0.168469 0.072906
0.072906 0.174151 0.072906
0.072906 0.180647 0.072906
0.072906 0.189303 0.072906
0.072906 0.200515 0.072906
0.072906 0.214564 0.072906
0.072906 0.231561 0.072906
0.072906 0.251410 0.072906
0.072906 0.273837 0.072906
0.072906 0.298455 0.072906
0.072906 0.324839 0.072906
0.072906 0.352586 0.072906
0.072906 0.381350 0.072906
0.072906 0.410855 0.072906
0.072906 0.440889 0.072906
0.072906 0.471297 0.072906
0.072906 0.501965 0.072906
0.072906 0.532815 0.072906
0.072906 0.563790 0.072906
0.072906 0.594852 0.072906
0.072906 0.625973 0.072906
0.072906 0.657134 0.072906
0.072906 0.688323 0.072906
0.072906 0.719532 0.072906
0.072906 0.750753 0.072906
0.072906 0.781984 0.072906
0.072906 0.813221 0.072906
0.072906 0.844462 0.072906
0.072906 0.875705 0.072906
0.072906 0.179759 0.072906
0.072906 0.184734 0.072906
0.072906 0.189426 0.072906
0.072906 0.193865 0.072906
0.072906 0.198076 0.072906
0.072906 0.202084 0.072906
0.072906 0.206762 0.072906
0.072906 0.213155 0.072906
0.072906 0.221687 0.072906
0.072906 0.232755 0.072906
0.072906 0.246650 0.072906
0.072906 0.263492 0.072906
0.072906 0.283195 0.072906
0.072906 0.305495 0.072906
0.072906 0.330008 0.072906
0.072906 0.356309 0.072906
0.072906 0.383993 0.072906
0.072906 0.412710 0.072906
0.072906 0.442182 0.072906
0.072906 0.472193 0.072906
0.072906 0.502584 0.072906
0.072906 0.533241 0.072906
0.072906 0.564083 0.072906
0.072906 0.595053 0.072906
0.072906 0.626110 0.072906
0.072906 0.657228 0.072906
0.072906 0.688388 0.072906
0.072906 0.719576 0.072906
0.072906 0.750784 0.072906
0.072906 0.782005 0.072906
0.072906 0.813235 0.072906
0.072906 0.844471 0.072906
0.072906 0.875712 0.072906
0.072906 0.215921 0.072906
0.072906 0.219162 0.072906
0.072906 0.222280 0.072906
0.072906 0.225284 0.072906
0.072906 0.228183 0.072906
0.072906 0.230984 0.072906
0.072906 0.234305 0.072906
0.072906 0.238931 0.072906
0.072906 0.245255 0.072906
0.072906 0.253704 0.072906
0.072906 0.264676 0.072906
0.072906 0.278467 0.072906
0.072906 0.295204 0.072906
0.072906 0.314809 0.072906
0.072906 0.337023 0.072906
0.072906 0.361465 0.072906
0.072906 0.387709 0.072906
0.072906 0.415350 0.072906
0.072906 0.444036 0.072906
0.072906 0.473485 0.072906
0.072906 0.503480 0.072906
0.072906 0.533859 0.072906
0.072906 0.564508 0.072906
0.072906 0.595345 0.072906
0.072906 0.626311 0.072906
0.072906 0.657366 0.072906
0.072906 0.688482 0.072906
0.072906 0.719640 0.072906
0.072906 0.750828 0.072906
0.072906 0.782035 0.072906
0.072906 0.813255 0.072906
0.072906 0.844485 0.072906
0.072906 0.875721 0.072906
0.072906 0.250369 0.072906
0.072906 0.252516 0.072906
0.072906 0.254609 0.072906
0.072906 0.256650 0.072906
0.072906 0.258642 0.072906
0.072906 0.260587 0.072906
0.072906 0.262919 0.072906
0.072906 0.266214 0.072906
0.072906 0.270803 0.072906
0.072906 0.277082 0.072906
0.072906 0.285475 0.072906
0.072906 0.296382 0.072906
0.072906 0.310103 0.072906
0.072906 0.326769 0.072906
0.072906 0.346308 0.072906
0.072906 0.368463 0.072906
0.072906 0.392856 0.072906
0.072906 0.419061 0.072906
0.072906 0.446673 0.072906
0.072906 0.475338 0.072906
0.072906 0.504771 0.072906
0.072906 0.534755 0.072906
0.072906 0.565127 0.072906
0.072906 0.595771 0.072906
0.072906 0.626603 0.072906
0.072906 0.657566 0.072906
0.072906 0.688620 0.072906
0.072906 0.719735 0.072906
0.072906 0.750892 0.072906
0.072906 0.782079 0.072906
0.072906 0.813286 0.072906
0.072906 0.844506 0.072906
0.072906 0.875736 0.072906
0.072906 0.283739 0.072906
0.072906 0.285177 0.072906
0.072906 0.286590 0.072906
0.072906 0.287980 0.072906
0.072906 0.289346 0.072906
0.072906 0.290691 0.072906
0.072906 0.292316 0.072906
0.072906 0.294635 0.072906
0.072906 0.297911 0.072906
0.072906 0.302476 0.072906
0.072906 0.308724 0.072906
0.072906 0.317079 0.072906
0.072906 0.327942 0.072906
0.072906 0.341616 0.072906
0.072906 0.358234 0.072906
0.072906 0.377727 0.072906
0.072906 0.399842 0.072906
0.072906 0.424202 0.072906
0.072906 0.450382 0.072906
0.072906 0.477973 0.072906
0.072906 0.506623 0.072906
0.072906 0.536046 0.072906
0.072906 0.566022 0.072906
0.072906 0.596388 0.072906
0.072906 0.627029 0.072906
0.072906 0.657859 0.072906
0.072906 0.688820 0.072906
0.072906 0.719872 0.072906
0.072906 0.750987 0.072906
0.072906 0.782144 0.072906
0.072906 0.813330 0.072906
0.072906 0.844536 0.072906
0.072906 0.875756 0.072906
0.072906 0.316408 0.072906
0.072906 0.317378 0.072906
0.072906 0.318336 0.072906
0.072906 0.319284 0.072906
0.072906 0.320220 0.072906
0.072906 0.321147 0.072906
0.072906 0.322273 0.072906
0.072906 0.323892 0.072906
0.072906 0.326202 0.072906
0.072906 0.329466 0.072906
0.072906 0.334015 0.072906
0.072906 0.340241 0.072906
0.072906 0.348571 0.072906
0.072906 0.359404 0.072906
0.072906 0.373045 0.072906
0.072906 0.389630 0.072906
0.072906 0.409093 0.072906
0.072906 0.431181 0.072906
0.072906 0.455518 0.072906
0.072906 0.481679 0.072906
0.072906 0.509258 0.072906
0.072906 0.537898 0.072906
0.072906 0.567313 0.072906
0.072906 0.597283 0.072906
0.072906 0.627647 0.072906
0.072906 0.658285 0.072906
0.072906 0.689113 0.072906
0.072906 0.720073 0.072906
0.072906 0.751124 0.072906
0.072906 0.782238 0.072906
0.072906 0.813394 0.072906
0.072906 0.844581 0.072906
0.072906 0.875787 0.072906
0.072906 0.348615 0.072906
0.072906 0.349272 0.072906
0.072906 0.349924 0.072906
0.072906 0.350571 0.072906
0.072906 0.351213 0.072906
0.072906 0.351850 0.072906
0.072906 0.352627 0.072906
0.072906 0.353750 0.072906
0.072906 0.355364 0.072906
0.072906 0.357668 0.072906
0.072906 0.360924 0.072906
0.072906 0.365461 0.072906
0.072906 0.371674 0.072906
0.072906 0.379986 0.072906
0.072906 0.390799 0.072906
0.072906 0.404418 0.072906
0.072906 0.420981 0.072906
0.072906 0.440422 0.072906
0.072906 0.462491 0.072906
0.072906 0.486813 0.072906
0.072906 0.512962 0.072906
0.072906 0.540531 0.072906
0.072906 0.569164 0.072906
0.072906 0.598574 0.072906
0.072906 0.628542 0.072906
0.072906 0.658902 0.072906
0.072906 0.689538 0.072906
0.072906 0.720366 0.072906
0.072906 0.751325 0.072906
0.072906 0.782376 0.072906
0.072906 0.813489 0.072906
0.072906 0.844645 0.072906
0.072906 0.875831 0.072906
0.072906 0.380513 0.072906
0.072906 0.380960 0.072906
0.072906 0.381404 0.072906
0.072906 0.381846 0.072906
0.072906 0.382286 0.072906
0.072906 0.382723 0.072906
0.072906 0.383258 0.072906
0.072906 0.384034 0.072906
0.072906 0.385155 0.072906
0.072906 0.386766 0.072906
0.072906 0.389066 0.072906
0.072906 0.392315 0.072906
0.072906 0.396846 0.072906
0.072906 0.403048 0.072906
0.072906 0.411348 0.072906
0.072906 0.422147 0.072906
0.072906 0.435751 0.072906
0.072906 0.452299 0.072906
0.072906 0.471726 0.072906
0.072906 0.493782 0.072906
0.072906 0.518093 0.072906
0.072906 0.544235 0.072906
0.072906 0.571797 0.072906
0.072906 0.600426 0.072906
0.072906 0.629832 0.072906
0.072906 0.659797 0.072906
0.072906 0.690156 0.072906
0.072906 0.720791 0.072906
0.072906 0.751617 0.072906
0.072906 0.782576 0.072906
0.072906 0.813626 0.072906
0.072906 0.844739 0.072906
0.072906 0.875896 0.072906
0.072906 0.412204 0.072906
0.072906 0.412508 0.072906
0.072906 0.412811 0.072906
0.072906 0.413114 0.072906
0.072906 0.413415 0.072906
0.072906 0.413714 0.072906
0.072906 0.414082 0.072906
0.072906 0.414616 0.072906
0.072906 0.415391 0.072906
0.072906 0.416511 0.072906
0.072906 0.418120 0.072906
0.072906 0.420417 0.072906
0.072906 0.423663 0.072906
0.072906 0.428188 0.072906
0.072906 0.434384 0.072906
0.072906 0.442675 0.072906
0.072906 0.453465 0.072906
0.072906 0.467059 0.072906
0.072906 0.483596 0.072906
0.072906 0.503013 0.072906
0.072906 0.525061 0.072906
0.072906 0.549365 0.072906
0.072906 0.575500 0.072906
0.072906 0.603058 0.072906
0.072906 0.631683 0.072906
0.072906 0.661088 0.072906
0.072906 0.691051 0.072906
0.072906 0.721409 0.072906
0.072906 0.752043 0.072906
0.072906 0.782869 0.072906
0.072906 0.813827 0.072906
0.072906 0.844877 0.072906
0.072906 0.875990 0.072906
0.072906 0.443754 0.072906
0.072906 0.443962 0.072906
0.072906 0.444169 0.072906
0.072906 0.444375 0.072906
0.072906 0.444581 0.072906
0.072906 0.444787 0.072906
0.072906 0.445039 0.072906
0.072906 0.445406 0.072906
0.072906 0.445940 0.072906
0.072906 0.446714 0.072906
0.072906 0.447833 0.072906
0.072906 0.449441 0.072906
0.072906 0.451735 0.072906
0.072906 0.454979 0.072906
0.072906 0.459500 0.072906
0.072906 0.465692 0.072906
0.072906 0.473978 0.072906
0.072906 0.484761 0.072906
0.072906 0.498348 0.072906
0.072906 0.514878 0.072906
0.072906 0.534288 0.072906
0.072906 0.556330 0.072906
0.072906 0.580629 0.072906
0.072906 0.606761 0.072906
0.072906 0.634316 0.072906
0.072906 0.662939 0.072906
0.072906 0.692341 0.072906
0.072906 0.722304 0.072906
0.072906 0.752661 0.072906
0.072906 0.783294 0.072906
0.072906 0.814119 0.072906
0.072906 0.845077 0.072906
0.072906 0.876127 0.072906
0.072906 0.475209 0.072906
0.072906 0.475351 0.072906
0.072906 0.475492 0.072906
0.072906 0.475634 0.072906
0.072906 0.475775 0.072906
0.072906 0.475915 0.072906
0.072906 0.476088 0.072906
0.072906 0.476340 0.072906
0.072906 0.476708 0.072906
0.072906 0.477241 0.072906
0.072906 0.478015 0.072906
0.072906 0.479132 0.072906
0.072906 0.480739 0.072906
0.072906 0.483033 0.072906
0.072906 0.486274 0.072906
0.072906 0.490793 0.072906
0.072906 0.496982 0.072906
0.072906 0.505264 0.072906
0.072906 0.516043 0.072906
0.072906 0.529625 0.072906
0.072906 0.546150 0.072906
0.072906 0.565556 0.072906
0.072906 0.587593 0.072906
0.072906 0.611889 0.072906
0.072906 0.638018 0.072906
0.072906 0.665571 0.072906
0.072906 0.694192 0.072906
0.072906 0.723594 0.072906
0.072906 0.753555 0.072906
0.072906 0.783912 0.072906
0.072906 0.814545 0.072906
0.072906 0.845370 0.072906
0.072906 0.876328 0.072906
0.072906 0.506599 0.072906
0.072906 0.506695 0.072906
0.072906 0.506792 0.072906
0.072906 0.506889 0.072906
0.072906 0.506985 0.072906
0.072906 0.507082 0.072906
0.072906 0.507200 0.072906
0.072906 0.507373 0.072906
0.072906 0.507625 0.072906
0.072906 0.507992 0.072906
0.072906 0.508525 0.072906
0.072906 0.509299 0.072906
0.072906 0.510416 0.072906
0.072906 0.512022 0.072906
0.072906 0.514315 0.072906
0.072906 0.517555 0.072906
0.072906 0.522072 0.072906
0.072906 0.528259 0.072906
0.072906 0.536538 0.072906
0.072906 0.547314 0.072906
0.072906 0.560893 0.072906
0.072906 0.577415 0.072906
0.072906 0.596817 0.072906
0.072906 0.618853 0.072906
0.072906 0.643146 0.072906
0.072906 0.669273 0.072906
0.072906 0.696824 0.072906
0.072906 0.725445 0.072906
0.072906 0.754846 0.072906
0.072906 0.784806 0.072906
0.072906 0.815163 0.072906
0.072906 0.845795 0.072906
0.072906 0.876620 0.072906
0.072906 0.537945 0.072906
0.072906 0.538011 0.072906
0.072906 0.538077 0.072906
0.072906 0.538143 0.072906
0.072906 0.538209 0.072906
0.072906 0.538275 0.072906
0.072906 0.538356 0.072906
0.072906 0.538474 0.072906
0.072906 0.538647 0.072906
0.072906 0.538899 0.072906
0.072906 0.539266 0.072906
0.072906 0.539799 0.072906
0.072906 0.540572 0.072906
0.072906 0.541689 0.072906
0.072906 0.543295 0.072906
0.072906 0.545587 0.072906
0.072906 0.548827 0.072906
0.072906 0.553343 0.072906
0.072906 0.559527 0.072906
0.072906 0.567805 0.072906
0.072906 0.578579 0.072906
0.072906 0.592155 0.072906
0.072906 0.608675 0.072906
0.072906 0.628076 0.072906
0.072906 0.650109 0.072906
0.072906 0.674400 0.072906
0.072906 0.700526 0.072906
0.072906 0.728077 0.072906
0.072906 0.756696 0.072906
0.072906 0.786097 0.072906
0.072906 0.816057 0.072906
0.072906 0.846413 0.072906
0.072906 0.877046 0.072906
0.072906 0.569260 0.072906
0.072906 0.569305 0.072906
0.072906 0.569350 0.072906
0.072906 0.569395 0.072906
0.072906 0.569441 0.072906
0.072906 0.569486 0.072906
0.072906 0.569541 0.072906
0.072906 0.569622 0.072906
0.072906 0.569741 0.072906
0.072906 0.569914 0.072906
0.072906 0.570165 0.072906
0.072906 0.570532 0.072906
0.072906 0.571065 0.072906
0.072906 0.571838 0.072906
0.072906 0.572955 0.072906
0.072906 0.574560 0.072906
0.072906 0.576852 0.072906
0.072906 0.580091 0.072906
0.072906 0.584606 0.072906
0.072906 0.590790 0.072906
0.072906 0.599067 0.072906
0.072906 0.609839 0.072906
0.072906 0.623414 0.072906
0.072906 0.639932 0.072906
0.072906 0.659331 0.072906
0.072906 0.681363 0.072906
0.072906 0.705653 0.072906
0.072906 0.731778 0.072906
0.072906 0.759328 0.072906
0.072906 0.787948 0.072906
0.072906 0.817348 0.072906
0.072906 0.847308 0.072906
0.072906 0.877663 0.072906
0.072906 0.600554 0.072906
0.072906 0.600585 0.072906
0.072906 0.600616 0.072906
0.072906 0.600647 0.072906
0.072906 0.600678 0.072906
0.072906 0.600709 0.072906
0.072906 0.600747 0.072906
0.072906 0.600803 0.072906
0.072906 0.600884 0.072906
0.072906 0.601002 0.072906
0.072906 0.601175 0.072906
0.072906 0.601427 0.072906
0.072906 0.601793 0.072906
0.072906 0.602326 0.072906
0.072906 0.603099 0.072906
0.072906 0.604216 0.072906
0.072906 0.605821 0.072906
0.072906 0.608113 0.072906
0.072906 0.611351 0.072906
0.072906 0.615866 0.072906
0.072906 0.622049 0.072906
0.072906 0.630325 0.072906
0.072906 0.641096 0.072906
0.072906 0.654670 0.072906
0.072906 0.671187 0.072906
0.072906 0.690585 0.072906
0.072906 0.712616 0.072906
0.072906 0.736906 0.072906
0.072906 0.763030 0.072906
0.072906 0.790579 0.072906
0.072906 0.819198 0.072906
0.072906 0.848598 0.072906
0.072906 0.878558 0.072906
0.072906 0.631835 0.072906
0.072906 0.631856 0.072906
0.072906 0.631877 0.072906
0.072906 0.631898 0.072906
0.072906 0.631920 0.072906
0.072906 0.631941 0.072906
0.072906 0.631967 0.072906
0.072906 0.632005 0.072906
0.072906 0.632060 0.072906
0.072906 0.632141 0.072906
0.072906 0.632260 0.072906
0.072906 0.632432 0.072906
0.072906 0.632684 0.072906
0.072906 0.633051 0.072906
0.072906 0.633584 0.072906
0.072906 0.634357 0.072906
0.072906 0.635473 0.072906
0.072906 0.637078 0.072906
0.072906 0.639370 0.072906
0.072906 0.642608 0.072906
0.072906 0.647122 0.072906
0.072906 0.653305 0.072906
0.072906 0.661580 0.072906
0.072906 0.672351 0.072906
0.072906 0.685924 0.072906
0.072906 0.702440 0.072906
0.072906 0.721837 0.072906
0.072906 0.743868 0.072906
0.072906 0.768157 0.072906
0.072906 0.794281 0.072906
0.072906 0.821830 0.072906
0.072906 0.850449 0.072906
0.072906 0.879849 0.072906
0.072906 0.663106 0.072906
0.072906 0.663120 0.072906
0.072906 0.663135 0.072906
0.072906 0.663149 0.072906
0.072906 0.663164 0.072906
0.072906 0.663178 0.072906
0.072906 0.663196 0.072906
0.072906 0.663222 0.072906
0.072906 0.663260 0.072906
0.072906 0.663316 0.072906
0.072906 0.663397 0.072906
0.072906 0.663515 0.072906
0.072906 0.663688 0.072906
0.072906 0.663940 0.072906
0.072906 0.664306 0.072906
0.072906 0.664839 0.072906
0.072906 0.665612 0.072906
0.072906 0.666728 0.072906
0.072906 0.668334 0.072906
0.072906 0.670624 0.072906
0.072906 0.673862 0.072906
0.072906 0.678377 0.072906
0.072906 0.684559 0.072906
0.072906 0.692834 0.072906
0.072906 0.703604 0.072906
0.072906 0.717177 0.072906
0.072906 0.733692 0.072906
0.072906 0.753089 0.072906
0.072906 0.775119 0.072906
0.072906 0.799408 0.072906
0.072906 0.825532 0.072906
0.072906 0.853081 0.072906
0.072906 0.881699 0.072906
0.072906 0.694370 0.072906
0.072906 0.694380 0.072906
0.072906 0.694390 0.072906
0.072906 0.694400 0.072906
0.072906 0.694410 0.072906
0.072906 0.694420 0.072906
0.072906 0.694432 0.072906
0.072906 0.694450 0.072906
0.072906 0.694476 0.072906
0.072906 0.694513 0.072906
0.072906 0.694569 0.072906
0.072906 0.694650 0.072906
0.072906 0.694769 0.072906
0.072906 0.694941 0.072906
0.072906 0.695193 0.072906
0.072906 0.695560 0.072906
0.072906 0.696093 0.072906
0.072906 0.696866 0.072906
0.072906 0.697982 0.072906
0.072906 0.699587 0.072906
0.072906 0.701878 0.072906
0.072906 0.705115 0.072906
0.072906 0.709629 0.072906
0.072906 0.715812 0.072906
0.072906 0.724086 0.072906
0.072906 0.734856 0.072906
0.072906 0.748429 0.072906
0.072906 0.764944 0.072906
0.072906 0.784341 0.072906
0.072906 0.806370 0.072906
0.072906 0.830659 0.072906
0.072906 0.856782 0.072906
0.072906 0.884331 0.072906
0.072906 0.725630 0.072906
0.072906 0.725637 0.072906
0.072906 0.725643 0.072906
0.072906 0.725650 0.072906
0.072906 0.725657 0.072906
0.072906 0.725664 0.072906
0.072906 0.725672 0.072906
0.072906 0.725684 0.072906
0.072906 0.725702 0.072906
0.072906 0.725728 0.072906
0.072906 0.725766 0.072906
0.072906 0.725822 0.072906
0.072906 0.725903 0.072906
0.072906 0.726021 0.072906
0.072906 0.726194 0.072906
0.072906 0.726446 0.072906
0.072906 0.726812 0.072906
0.072906 0.727345 0.072906
0.072906 0.728118 0.072906
0.072906 0.729234 0.072906
0.072906 0.730839 0.072906
0.072906 0.733130 0.072906
0.072906 0.736368 0.072906
0.072906 0.740882 0.072906
0.072906 0.747064 0.072906
0.072906 0.755338 0.072906
0.072906 0.766108 0.072906
0.072906 0.779680 0.072906
0.072906 0.796195 0.072906
0.072906 0.815591 0.072906
0.072906 0.837621 0.072906
0.072906 0.861909 0.072906
0.072906 0.888033 0.072906
0.072906 0.756887 0.072906
0.072906 0.756891 0.072906
0.072906 0.756896 0.072906
0.072906 0.756900 0.072906
0.072906 0.756905 0.072906
0.072906 0.756910 0.072906
0.072906 0.756915 0.072906
0.072906 0.756924 0.072906
0.072906 0.756936 0.072906
0.072906 0.756954 0.072906
0.072906 0.756980 0.072906
0.072906 0.757018 0.072906
0.072906 0.757073 0.072906
0.072906 0.757154 0.072906
0.072906 0.757273 0.072906
0.072906 0.757446 0.072906
0.072906 0.757697 0.072906
0.072906 0.758064 0.072906
0.072906 0.758597 0.072906
0.072906 0.759370 0.072906
0.072906 0.760486 0.072906
0.072906 0.762091 0.072906
0.072906 0.764382 0.072906
0.072906 0.767619 0.072906
0.072906 0.772133 0.072906
0.072906 0.778315 0.072906
0.072906 0.786589 0.072906
0.072906 0.797359 0.072906
0.072906 0.810931 0.072906
0.072906 0.827446 0.072906
0.072906 0.846842 0.072906
0.072906 0.868871 0.072906
0.072906 0.893160 0.072906
0.072906 0.788141 0.072906
0.072906 0.788144 0.072906
0.072906 0.788147 0.072906
0.072906 0.788151 0.072906
0.072906 0.788154 0.072906
0.072906 0.788157 0.072906
0.072906 0.788161 0.072906
0.072906 0.788167 0.072906
0.072906 0.788175 0.072906
0.072906 0.788187 0.072906
0.072906 0.788205 0.072906
0.072906 0.788231 0.072906
0.072906 0.788269 0.072906
0.072906 0.788324 0.072906
0.072906 0.788406 0.072906
0.072906 0.788524 0.072906
0.072906 0.788697 0.072906
0.072906 0.788948 0.072906
0.072906 0.789315 0.072906
0.072906 0.789848 0.072906
0.072906 0.790621 0.072906
0.072906 0.791737 0.072906
0.072906 0.793342 0.072906
0.072906 0.795633 0.072906
0.072906 0.798870 0.072906
0.072906 0.803384 0.072906
0.072906 0.809566 0.072906
0.072906 0.817840 0.072906
0.072906 0.828609 0.072906
