studioX_dirs/sX_0_Template_VFX_v2/01_SHOTS_ASSETS/shots/SHOT_NAME/studio/shot_OCIO/shot_lut/clientShotLUTname_ACEScct.cube
TITLE "Generated by Foundry::LUT"
LUT_3D_SIZE 5
0.072906 -0.002916 0.072906
0.072906 0.070706 0.072906
0.072906 0.371480 0.072906
0.072906 0.625494 0.072906
0.072906 0.875682 0.072906
0.072906 0.215921 0.072906
0.072906 0.245255 0.072906
0.072906 0.387709 0.072906
0.072906 0.626311 0.072906
0.072906 0.875721 0.072906
0.072906 0.475209 0.072906
0.072906 0.476708 0.072906
0.072906 0.496982 0.072906
0.072906 0.638018 0.072906
0.072906 0.876328 0.072906
0.072906 0.725630 0.072906
0.072906 0.725702 0.072906
0.072906 0.726812 0.072906
0.072906 0.747064 0.072906
0.072906 0.888033 0.072906
0.072906 0.975650 0.072906
0.072906 0.975654 0.072906
0.072906 0.975707 0.072906
0.072906 0.976817 0.072906
0.072906 0.997068 0.072906
0.072906 0.022063 0.072906
0.072906 0.095686 0.072906
0.072906 0.373268 0.072906
0.072906 0.625577 0.072906
0.072906 0.875686 0.072906
0.072906 0.227085 0.072906
0.072906 0.253230 0.072906
0.072906 0.389180 0.072906
0.072906 0.626393 0.072906
0.072906 0.875726 0.072906
0.072906 0.475720 0.072906
0.072906 0.477210 0.072906
0.072906 0.497374 0.072906
0.072906 0.638089 0.072906
0.072906 0.876332 0.072906
0.072906 0.725654 0.072906
0.072906 0.725727 0.072906
0.072906 0.726836 0.072906
0.072906 0.747082 0.072906
0.072906 0.888036 0.072906
0.072906 0.975651 0.072906
0.072906 0.975655 0.072906
0.072906 0.975709 0.072906
0.072906 0.976818 0.072906
0.072906 0.997068 0.072906
0.072906 0.271027 0.072906
0.072906 0.287345 0.072906
0.072906 0.396915 0.072906
0.072906 0.626846 0.072906
0.072906 0.875747 0.072906
0.072906 0.316534 0.072906
0.072906 0.326314 0.072906
0.072906 0.409134 0.072906
0.072906 0.627650 0.072906
0.072906 0.875787 0.072906
0.072906 0.483258 0.072906
0.072906 0.484618 0.072906
0.072906 0.503230 0.072906
0.072906 0.639180 0.072906
0.072906 0.876393 0.072906
0.072906 0.726033 0.072906
0.072906 0.726105 0.072906
0.072906 0.727210 0.072906
0.072906 0.747374 0.072906
0.072906 0.888089 0.072906
0.072906 0.975670 0.072906
0.072906 0.975673 0.072906
0.072906 0.975727 0.072906
0.072906 0.976836 0.072906
0.072906 0.997083 0.072906
0.072906 0.535998 0.072906
0.072906 0.536717 0.072906
0.072906 0.547123 0.072906
0.072906 0.649614 0.072906
0.072906 0.877014 0.072906
0.072906 0.538395 0.072906
0.072906 0.539094 0.072906
0.072906 0.549222 0.072906
0.072906 0.650225 0.072906
0.072906 0.877053 0.072906
0.072906 0.568669 0.072906
0.072906 0.569154 0.072906
0.072906 0.576314 0.072906
0.072906 0.659134 0.072906
0.072906 0.877650 0.072906
0.072906 0.733544 0.072906
0.072906 0.733609 0.072906
0.072906 0.734618 0.072906
0.072906 0.753230 0.072906
0.072906 0.889180 0.072906
0.072906 0.976048 0.072906
0.072906 0.976051 0.072906
0.072906 0.976105 0.072906
0.072906 0.977209 0.072906
0.072906 0.997374 0.072906
0.072906 0.786652 0.072906
0.072906 0.786687 0.072906
0.072906 0.787218 0.072906
0.072906 0.797565 0.072906
0.072906 0.899742 0.072906
0.072906 0.786768 0.072906
0.072906 0.786803 0.072906
0.072906 0.787333 0.072906
0.072906 0.797666 0.072906
0.072906 0.899771 0.072906
0.072906 0.788541 0.072906
0.072906 0.788575 0.072906
0.072906 0.789094 0.072906
0.072906 0.799222 0.072906
0.072906 0.900225 0.072906
0.072906 0.818771 0.072906
0.072906 0.818794 0.072906
0.072906 0.819154 0.072906
0.072906 0.826314 0.072906
0.072906 0.909134 0.072906
0.072906 0.983557 0.072906
0.072906 0.983560 0.072906
0.072906 0.983609 0.072906
0.072906 0.984618 0.072906
0.072906 1.003230 0.072906
